polaris-icons/icons/newicons/TeamMajor.svg

<svg width="20" height="20" viewBox="0 0 20 20" fill="none" xmlns="http://www.w3.org/2000/svg">
<path fill-rule="evenodd" clip-rule="evenodd" d="M5.5 4C4.25736 4 3.25 5.00736 3.25 6.25C3.25 7.49264 4.25736 8.5 5.5 8.5C6.74264 8.5 7.75 7.49264 7.75 6.25C7.75 5.00736 6.74264 4 5.5 4ZM4.75 6.25C4.75 5.83579 5.08579 5.5 5.5 5.5C5.91421 5.5 6.25 5.83579 6.25 6.25C6.25 6.66421 5.91421 7 5.5 7C5.08579 7 4.75 6.66421 4.75 6.25Z" fill="black"/>
<path fill-rule="evenodd" clip-rule="evenodd" d="M10 7C8.75736 7 7.75 8.00736 7.75 9.25C7.75 10.4926 8.75736 11.5 10 11.5C11.2426 11.5 12.25 10.4926 12.25 9.25C12.25 8.00736 11.2426 7 10 7ZM9.25 9.25C9.25 8.83579 9.58579 8.5 10 8.5C10.4142 8.5 10.75 8.83579 10.75 9.25C10.75 9.66421 10.4142 10 10 10C9.58579 10 9.25 9.66421 9.25 9.25Z" fill="black"/>
<path fill-rule="evenodd" clip-rule="evenodd" d="M12.25 6.25C12.25 5.00736 13.2574 4 14.5 4C15.7426 4 16.75 5.00736 16.75 6.25C16.75 7.49264 15.7426 8.5 14.5 8.5C13.2574 8.5 12.25 7.49264 12.25 6.25ZM14.5 5.5C14.0858 5.5 13.75 5.83579 13.75 6.25C13.75 6.66421 14.0858 7 14.5 7C14.9142 7 15.25 6.66421 15.25 6.25C15.25 5.83579 14.9142 5.5 14.5 5.5Z" fill="black"/>
<path d="M14.5 9C14.0858 9 13.75 9.33579 13.75 9.75C13.75 10.1642 14.0858 10.5 14.5 10.5H15.25C15.9404 10.5 16.5 11.0596 16.5 11.75V13.25C16.5 13.6642 16.8358 14 17.25 14C17.6642 14 18 13.6642 18 13.25V11.75C18 10.2312 16.7688 9 15.25 9H14.5Z" fill="black"/>
<path d="M6.25 9.75C6.25 9.33579 5.91421 9 5.5 9H4.75C3.23122 9 2 10.2312 2 11.75V13.25C2 13.6642 2.33579 14 2.75 14C3.16421 14 3.5 13.6642 3.5 13.25V11.75C3.5 11.0596 4.05964 10.5 4.75 10.5H5.5C5.91421 10.5 6.25 10.1642 6.25 9.75Z" fill="black"/>
<path d="M10.75 12C12.2688 12 13.5 13.2312 13.5 14.75V15.75C13.5 16.1642 13.1642 16.5 12.75 16.5C12.3358 16.5 12 16.1642 12 15.75V14.75C12 14.0596 11.4403 13.5 10.75 13.5H9.24999C8.55957 13.5 7.99999 14.0596 7.99999 14.7499V15.75C7.99999 16.1642 7.6642 16.5 7.24999 16.5C6.83577 16.5 6.49999 16.1642 6.49999 15.75V14.7499C6.49999 13.231 7.73126 12 9.24999 12H10.75Z" fill="black"/>
</svg>

<svg viewBox="0 0 20 20" fill="none" xmlns="http://www.w3.org/2000/svg"><path fill-rule="evenodd" clip-rule="evenodd" d="M5.5 4a2.25 2.25 0 1 0 0 4.5 2.25 2.25 0 0 0 0-4.5Zm-.75 2.25a.75.75 0 1 1 1.5 0 .75.75 0 0 1-1.5 0Z" fill="#5C5F62"/><path fill-rule="evenodd" clip-rule="evenodd" d="M10 7a2.25 2.25 0 1 0 0 4.5 2.25 2.25 0 0 0 0-4.5Zm-.75 2.25a.75.75 0 1 1 1.5 0 .75.75 0 0 1-1.5 0Z" fill="#5C5F62"/><path fill-rule="evenodd" clip-rule="evenodd" d="M12.25 6.25a2.25 2.25 0 1 1 4.5 0 2.25 2.25 0 0 1-4.5 0Zm2.25-.75a.75.75 0 1 0 0 1.5.75.75 0 0 0 0-1.5Z" fill="#5C5F62"/><path d="M14.5 9a.75.75 0 0 0 0 1.5h.75c.69 0 1.25.56 1.25 1.25v1.5a.75.75 0 0 0 1.5 0v-1.5a2.75 2.75 0 0 0-2.75-2.75h-.75Z" fill="#5C5F62"/><path d="M6.25 9.75a.75.75 0 0 0-.75-.75h-.75a2.75 2.75 0 0 0-2.75 2.75v1.5a.75.75 0 0 0 1.5 0v-1.5c0-.69.56-1.25 1.25-1.25h.75a.75.75 0 0 0 .75-.75Z" fill="#5C5F62"/><path d="M10.75 12a2.75 2.75 0 0 1 2.75 2.75v1a.75.75 0 0 1-1.5 0v-1c0-.69-.56-1.25-1.25-1.25h-1.5c-.69 0-1.25.56-1.25 1.25v1a.75.75 0 0 1-1.5 0v-1a2.75 2.75 0 0 1 2.75-2.75h1.5Z" fill="#5C5F62"/></svg>
